X: 30637
T: Ontario Swing
R: reel
M: 4/4
K: Dmajor
A,2 A,B,DE|:F2 FF FGFE|DDFD EDEF|GGBG GBGB|eBBe BBeB|
c2 cc cdcB|A2 Ac BAFE|1 F2 FF FEDE|F2 A,A, A,B,DE:|2 D2 DE FFFE||
D2|:e2 f2 g2|affa ffab|agfe dcBA|GGBG GBGB|eBBe BBeB|
c2 cc cdcB|A2 Ac BAFE|1 F2 FF FEDE|F2:|2 D2 DE FFFE|D2||

